X: 11
T:B****** R****
M:6/8
L:1/8
N:It was always considered unlucky by members of Shake The Dice to speak
N:the name of this tune on stage. Someone did it once and less than five
N:years later the band split up, which proves the point really.
R:Polka
N:http://www.lesession.co.uk
Z:Steve Mansfield 1998-2001
K:G
D | G2 G G2 G | G2 G G2 G | A2 A A2 A | B3 G3 |
c2 c c2 c | B2 B B2 B | A2 B A2 G | F3 D3 |
G2 G G2 G | G2 G G2 G | A2 A A2 A | B3 G3 |
c2 c c2 c | B2 c d2 e | d2 c B2 A | G2 A B2 c ||
(d3 d2)B | (G3 G2)B | A2 A AGA | B3 G3 |
c2 c c2 c | B2 B B2 B | A2 B A2 G | F3 D3 |
G2 G G2 G | G2 G G2 G | A2 A A2 A | B3 G3 |
c2 c c2 c | B2 c d2 e | d2 c B2 a | G3 G3 ||
<end>
<start>
